public/editor-src/editor/icons/editor/wp-excerpt.svg

<svg id="nc-woo-excerpt" viewBox="0 0 16 16">
    <g stroke="none" stroke-width="1" fill-rule="evenodd">
    <path
        d="M8,14 C8,14.5522847 7.55228475,15 7,15 L3,15 C2.44771525,15 2,14.5522847 2,14 C2,13.4477153 2.44771525,13 3,13 L7,13 C7.55228475,13 8,13.4477153 8,14 Z M14,11 C14,11.5522847 13.5522847,12 13,12 L3,12 C2.44771525,12 2,11.5522847 2,11 C2,10.4477153 2.44771525,10 3,10 L13,10 C13.5522847,10 14,10.4477153 14,11 Z M15,2 L15,6 L15,6 C15,6.55228475 14.5522847,7 14,7 L2,7 C1.44771525,7 1,6.55228475 1,6 L1,2 C1,1.44771525 1.44771525,1 2,1 L14,1 C14.5522847,1 15,1.44771525 15,2 Z"
        fill="currentColor"
        fill-rule="nonzero"
    ></path>
    </g>
</svg>

<svg viewBox="0 0 16 16"><path fill="currentColor" fill-rule="nonzero" d="M8 14a1 1 0 0 1-1 1H3a1 1 0 0 1 0-2h4a1 1 0 0 1 1 1Zm6-3a1 1 0 0 1-1 1H3a1 1 0 0 1 0-2h10a1 1 0 0 1 1 1Zm1-9v4a1 1 0 0 1-1 1H2a1 1 0 0 1-1-1V2a1 1 0 0 1 1-1h12a1 1 0 0 1 1 1Z"/></svg>
